svg/mono/amex.svg

<svg height="471" viewBox="0 0 750 471" width="750" xmlns="http://www.w3.org/2000/svg"><path d="m0 41.0047706c0-22.0940247 17.9143492-40.0047706 39.9919369-40.0047706h670.0161261c22.086937 0 39.991937 17.9064659 39.991937 40.0047706v390.9904584c0 22.094025-17.914349 40.004771-39.991937 40.004771h-670.0161261c-22.0869369 0-39.9919369-17.906466-39.9919369-40.004771zm.00266073 180.9013294h36.02622407l8.1231952-19.511128h18.1860592l8.1019093 19.511128h70.8843895v-14.916846l6.327206 14.980435h36.797834l6.327206-15.202995v15.139406h176.161318l-.082483-32.027501h3.408389c2.386671.082135 3.083781.302046 3.083781 4.225998v27.801503h91.111226v-7.455773c7.348924 3.921302 18.779401 7.455773 33.820482 7.455773h38.330413l8.203017-19.511128h18.186059l8.022088 19.511128h73.864402v-18.533452l11.18569 18.533452h59.190501v-122.5142006h-58.578534v14.4690756l-8.203017-14.4690756h-60.108451v14.4690756l-7.532514-14.4690756h-81.192041c-13.590986 0-25.537644 1.8891136-35.188095 7.1537276v-7.1537276h-56.029559v7.1537276c-6.140955-5.426235-14.508937-7.1537276-23.813494-7.1537276h-204.697599l-13.734666 31.6433196-14.104506-31.6433196h-64.4747019v14.4690756l-7.0828514-14.4690756h-54.9865545l-25.5349832 58.2498856v64.264315zm227.65700027-17.25373h-21.615734l-.079822-68.797659-30.574397 68.797659h-18.513329l-30.654219-68.858598v68.858598h-42.8855747l-8.1019093-19.593264h-43.9019718l-8.1843918 19.593264h-22.90086492l37.75835642-87.84247h31.3273828l35.8612593 83.168702v-83.168702h34.413824l27.594385 59.590547 25.348732-59.590547h35.105614v87.84247zm-160.0373208-37.904156-14.4317755-35.018819-14.3492929 35.018819zm246.1889538 37.904156h-70.437388v-87.84247h70.437388v18.292345h-49.351137v15.833583h48.167114v18.006196h-48.167114v17.542529h49.351137zm99.314243-64.184829c0 14.005408-9.38704 21.24127-14.857492 23.413884 4.613698 1.748688 8.554233 4.838039 10.430044 7.397483 2.977352 4.369073 3.490872 8.271828 3.490872 16.117083v17.256379h-21.267179l-.079822-11.077679c0-5.285809.508199-12.887307-3.328568-17.113305-3.08112-3.08935-7.7773-3.759681-15.368351-3.759681h-22.634792v31.950665h-21.083589v-87.84247h48.497045c10.775938 0 18.715543.2835 25.532322 4.207452 6.670439 3.923951 10.66951 9.652232 10.66951 19.450189zm-27.573099 12.336205c-2.897531 1.751338-6.324545 1.809628-10.430045 1.809628h-25.614805v-19.511129h25.96336c3.674462 0 7.508568.164271 9.999007 1.584418 2.735226 1.279723 4.427447 4.003438 4.427447 7.765769 0 3.839167-1.609739 6.928517-4.344964 8.351314zm61.31642 51.848624h-21.514627v-87.84247h21.514627zm249.597344 0h-29.879948l-39.966759-65.930869v65.930869h-42.94145l-8.205678-19.593264h-43.800864l-7.960891 19.593264h-24.672908c-10.249115 0-23.225473-2.257398-30.574397-9.715821-7.410121-7.458423-11.265512-17.561075-11.265512-33.535083 0-13.027732 2.304188-24.937363 11.366619-34.348488 6.816779-7.010653 17.49161-10.243078 32.021833-10.243078h20.413086v18.822251h-19.98471c-7.694818 0-12.039783 1.139297-16.225104 5.203674-3.59464 3.698742-6.061133 10.690848-6.061133 19.89796 0 9.411125 1.878472 16.196568 5.797721 20.629229 3.246085 3.476181 9.144914 4.530694 14.695187 4.530694h9.469523l29.717643-69.081158h31.593456l35.698955 83.086566v-83.086566h32.104314l37.063907 61.177614v-61.177614h21.59711zm-128.180454-37.904156-14.591419-35.018819-14.511597 35.018819zm181.714252 177.770119c-5.121897 7.458423-15.102278 11.2393-28.613443 11.2393h-40.719744v-18.840797h40.554779c4.023017 0 6.838065-.527256 8.532947-2.175263 1.468721-1.359208 2.4931-3.333107 2.4931-5.73093 0-2.559445-1.024379-4.591633-2.575582-5.810417-1.529917-1.340661-3.756945-1.950053-7.428746-1.950053-19.798459-.67033-44.497974.609392-44.497974-27.194761 0-12.744232 8.125856-26.158795 30.252449-26.158795h41.999553v-17.48159h-39.022201c-11.776371 0-20.330604 2.808501-26.389076 7.174924v-7.174924h-57.71912c-9.230057 0-20.064531 2.278595-25.189088 7.174924v-7.174924h-103.071187v7.174924c-8.203017-5.892552-22.044112-7.174924-28.432514-7.174924h-67.986859v7.174924c-6.48951-6.258187-20.921285-7.174924-29.717644-7.174924h-76.088769l-17.411788 18.763962-16.307587-18.763962h-113.660875v122.598986h111.521652l17.941272-19.060709 16.900929 19.060709 68.742506.060939v-28.840118h6.758242c9.120968.140425 19.878281-.22521 29.369089-4.310783v33.087312h56.700062v-31.953314h2.735226c3.490872 0 3.834105.143074 3.834105 3.616606v28.334059h172.24473c10.935582 0 22.366059-2.787304 28.695926-7.845254v7.845254h54.635338c11.369281 0 22.472488-1.587068 30.920292-5.651445zm-341.48284-47.678266c0 24.407457-18.287167 29.44686-36.718013 29.44686h-26.309254v29.470706h-40.983156l-25.96336-29.086524-26.982418 29.086524h-83.520175v-87.863666h84.805305l25.942075 28.800376 26.820113-28.800376h67.374893c16.733303 0 35.53399 4.612829 35.53399 28.9461zm-167.631032 40.606675h-51.841577v-17.48159h46.291304v-17.92671h-46.291304v-15.974008h52.863296l23.063169 25.605044zm83.602658 10.319913-32.373048-35.789832 32.373048-34.653184zm48.249597-39.324303h-27.24849v-22.375268h27.493277c7.612336 0 12.896537 3.08935 12.896537 10.772983 0 7.598848-5.039414 11.602285-13.141324 11.602285zm142.261014-40.548385h70.37353v18.170467h-49.375084v15.974008h48.169776v17.92671h-48.169776v17.48159l49.375084.079485v18.231406h-70.37353zm-26.636524 47.031782c4.69352 1.724843 8.530286 4.816843 10.328937 7.376287 2.977352 4.289587 3.408389 8.293025 3.493533 16.037597v17.418h-21.168733v-10.992894c0-5.285809.510859-13.112516-3.408389-17.198089-3.081121-3.14764-7.777301-3.900107-15.469459-3.900107h-22.533685v32.09109h-21.187357v-87.863666h48.680635c10.674831 0 18.449471.468967 25.370018 4.146512 6.654474 4.003438 10.839796 9.487962 10.839796 19.511129-.002661 14.023954-9.395022 21.180331-14.945296 23.374141zm-12.734232-10.934605c-2.820369 1.666554-6.308581 1.809628-10.411419 1.809628h-25.614805v-19.733688h25.96336c3.754283 0 7.511228.079486 10.062864 1.587067 2.732565 1.422797 4.36625 4.143863 4.36625 7.903544s-1.633685 6.788092-4.36625 8.433449zm190.263163 5.426235c4.1055 4.231297 6.30592 9.572747 6.30592 18.615588 0 18.901736-11.858854 27.724666-33.123373 27.724666h-41.068299v-18.840797h40.903334c3.999071 0 6.835404-.527256 8.612769-2.175263 1.450095-1.359208 2.490439-3.333107 2.490439-5.73093 0-2.559445-1.125487-4.591633-2.572922-5.810417-1.612399-1.340661-3.836766-1.950053-7.508567-1.950053-19.718637-.67033-44.412831.609392-44.412831-27.194761 0-12.744232 8.040713-26.158795 30.14602-26.158795h42.270947v18.700372h-38.678967c-3.834106 0-6.327205.143075-8.447804 1.587068-2.309509 1.422797-3.166263 3.534471-3.166263 6.321775 0 3.31456 1.960955 5.569309 4.613698 6.544336 2.224367.771012 4.613698.996222 8.205678.996222l11.350655.304696c11.446441.278201 19.303564 2.24945 24.079566 7.066293zm84.108196-22.825689h-38.428859c-3.836767 0-6.385742.143075-8.532947 1.587068-2.224367 1.422797-3.08112 3.534471-3.08112 6.321775 0 3.31456 1.878472 5.569309 4.611037 6.544336 2.224367.771012 4.613698.996222 8.125856.996222l11.427816.304696c11.531585.2835 19.229064 2.257398 23.922584 7.071592.854093.670331 1.367613 1.422797 1.955633 2.175263z" fill="#393939" fill-rule="evenodd"/></svg>

<?xml version="1.0" encoding="UTF-8" standalone="no"?>
<svg width="750" height="471" viewBox="0 0 750 471" version="1.1" xmlns="http://www.w3.org/2000/svg" xmlns:xlink="http://www.w3.org/1999/xlink" xmlns:sketch="http://www.bohemiancoding.com/sketch/ns">
    <!-- Generator: Sketch 3.3.1 (12005) - http://www.bohemiancoding.com/sketch -->
    <title>amex</title>
    <desc>Created with Sketch.</desc>
    <defs></defs>
    <g id="Page-1" stroke="none" stroke-width="1" fill="none" fill-rule="evenodd" sketch:type="MSPage">
        <g id="Amex" sketch:type="MSLayerGroup" fill="#393939">
            <path d="M0,41.0047706 C0,18.9107459 17.9143492,1 39.9919369,1 L710.008063,1 C732.095,1 750,18.9064659 750,41.0047706 L750,431.995229 C750,454.089254 732.085651,472 710.008063,472 L39.9919369,472 C17.905,472 0,454.093534 0,431.995229 L0,41.0047706 Z M0.00266072556,221.9061 L36.0288848,221.9061 L44.15208,202.394972 L62.3381392,202.394972 L70.4400485,221.9061 L141.324438,221.9061 L141.324438,206.989254 L147.651644,221.969689 L184.449478,221.969689 L190.776684,206.766694 L190.776684,221.9061 L366.938002,221.9061 L366.855519,189.878599 L370.263908,189.878599 C372.650579,189.960734 373.347689,190.180645 373.347689,194.104597 L373.347689,221.9061 L464.458915,221.9061 L464.458915,214.450327 C471.807839,218.371629 483.238316,221.9061 498.279397,221.9061 L536.60981,221.9061 L544.812827,202.394972 L562.998886,202.394972 L571.020974,221.9061 L644.885376,221.9061 L644.885376,203.372648 L656.071066,221.9061 L715.261567,221.9061 L715.261567,99.3918994 L656.683033,99.3918994 L656.683033,113.860975 L648.480016,99.3918994 L588.371565,99.3918994 L588.371565,113.860975 L580.839051,99.3918994 L499.64701,99.3918994 C486.056024,99.3918994 474.109366,101.281013 464.458915,106.545627 L464.458915,99.3918994 L408.429356,99.3918994 L408.429356,106.545627 C402.288401,101.119392 393.920419,99.3918994 384.615862,99.3918994 L179.918263,99.3918994 L166.183597,131.035219 L152.079091,99.3918994 L87.6043891,99.3918994 L87.6043891,113.860975 L80.5215377,99.3918994 L25.5349832,99.3918994 L0,157.641785 L0,221.9061 L0.00266072556,221.9061 L0.00266072556,221.9061 Z M227.659661,204.65237 L206.043927,204.65237 L205.964105,135.854711 L175.389708,204.65237 L156.876379,204.65237 L126.22216,135.793772 L126.22216,204.65237 L83.3365853,204.65237 L75.234676,185.059106 L31.3327042,185.059106 L23.1483124,204.65237 L0.247447477,204.65237 L38.0058039,116.8099 L69.3331867,116.8099 L105.194446,199.978602 L105.194446,116.8099 L139.60827,116.8099 L167.202655,176.400447 L192.551387,116.8099 L227.657001,116.8099 L227.657001,204.65237 L227.659661,204.65237 L227.659661,204.65237 Z M67.6223402,166.748214 L53.1905647,131.729395 L38.8412718,166.748214 L67.6223402,166.748214 L67.6223402,166.748214 Z M313.811294,204.65237 L243.373906,204.65237 L243.373906,116.8099 L313.811294,116.8099 L313.811294,135.102245 L264.460157,135.102245 L264.460157,150.935828 L312.627271,150.935828 L312.627271,168.942024 L264.460157,168.942024 L264.460157,186.484553 L313.811294,186.484553 L313.811294,204.65237 L313.811294,204.65237 L313.811294,204.65237 Z M413.125537,140.467541 C413.125537,154.472949 403.738497,161.708811 398.268045,163.881425 C402.881743,165.630113 406.822278,168.719464 408.698089,171.278908 C411.675441,175.647981 412.188961,179.550736 412.188961,187.395991 L412.188961,204.65237 L390.921782,204.65237 L390.84196,193.574691 C390.84196,188.288882 391.350159,180.687384 387.513392,176.461386 C384.432272,173.372036 379.736092,172.701705 372.145041,172.701705 L349.510249,172.701705 L349.510249,204.65237 L328.42666,204.65237 L328.42666,116.8099 L376.923705,116.8099 C387.699643,116.8099 395.639248,117.0934 402.456027,121.017352 C409.126466,124.941303 413.125537,130.669584 413.125537,140.467541 L413.125537,140.467541 Z M385.552438,152.803746 C382.654907,154.555084 379.227893,154.613374 375.122393,154.613374 L349.507588,154.613374 L349.507588,135.102245 L375.470948,135.102245 C379.14541,135.102245 382.979516,135.266516 385.469955,136.686663 C388.205181,137.966386 389.897402,140.690101 389.897402,144.452432 C389.897402,148.291599 388.287663,151.380949 385.552438,152.803746 L385.552438,152.803746 Z M446.868858,204.65237 L425.354231,204.65237 L425.354231,116.8099 L446.868858,116.8099 L446.868858,204.65237 L446.868858,204.65237 Z M696.466202,204.65237 L666.586254,204.65237 L626.619495,138.721501 L626.619495,204.65237 L583.678045,204.65237 L575.472367,185.059106 L531.671503,185.059106 L523.710612,204.65237 L499.037704,204.65237 C488.788589,204.65237 475.812231,202.394972 468.463307,194.936549 C461.053186,187.478126 457.197795,177.375474 457.197795,161.401466 C457.197795,148.373734 459.501983,136.464103 468.564414,127.052978 C475.381193,120.042325 486.056024,116.8099 500.586247,116.8099 L520.999333,116.8099 L520.999333,135.632151 L501.014623,135.632151 C493.319805,135.632151 488.97484,136.771448 484.789519,140.835825 C481.194879,144.534567 478.728386,151.526673 478.728386,160.733785 C478.728386,170.14491 480.606858,176.930353 484.526107,181.363014 C487.772192,184.839195 493.671021,185.893708 499.221294,185.893708 L508.690817,185.893708 L538.40846,116.81255 L570.001916,116.81255 L605.700871,199.899116 L605.700871,116.81255 L637.805185,116.81255 L674.869092,177.990164 L674.869092,116.81255 L696.466202,116.81255 L696.466202,204.65237 L696.466202,204.65237 Z M568.285748,166.748214 L553.694329,131.729395 L539.182732,166.748214 L568.285748,166.748214 Z M750,344.518333 C744.878103,351.976756 734.897722,355.757633 721.386557,355.757633 L680.666813,355.757633 L680.666813,336.916836 L721.221592,336.916836 C725.244609,336.916836 728.059657,336.38958 729.754539,334.741573 C731.22326,333.382365 732.247639,331.408466 732.247639,329.010643 C732.247639,326.451198 731.22326,324.41901 729.672057,323.200226 C728.14214,321.859565 725.915112,321.250173 722.243311,321.250173 C702.444852,320.579843 677.745337,321.859565 677.745337,294.055412 C677.745337,281.31118 685.871193,267.896617 707.997786,267.896617 L749.997339,267.896617 L749.997339,250.415027 L710.975138,250.415027 C699.198767,250.415027 690.644534,253.223528 684.586062,257.589951 L684.586062,250.415027 L626.866942,250.415027 C617.636885,250.415027 606.802411,252.693622 601.677854,257.589951 L601.677854,250.415027 L498.606667,250.415027 L498.606667,257.589951 C490.40365,251.697399 476.562555,250.415027 470.174153,250.415027 L402.187294,250.415027 L402.187294,257.589951 C395.697784,251.331764 381.266009,250.415027 372.46965,250.415027 L296.380881,250.415027 L278.969093,269.178989 L262.661506,250.415027 L149.000631,250.415027 L149.000631,373.014013 L260.522283,373.014013 L278.463555,353.953304 L295.364484,373.014013 L364.10699,373.074952 L364.10699,344.234834 L370.865232,344.234834 C379.9862,344.375259 390.743513,344.009624 400.234321,339.924051 L400.234321,373.011363 L456.934383,373.011363 L456.934383,341.058049 L459.669609,341.058049 C463.160481,341.058049 463.503714,341.201123 463.503714,344.674655 L463.503714,373.008714 L635.748444,373.008714 C646.684026,373.008714 658.114503,370.22141 664.44437,365.16346 L664.44437,373.008714 L719.079708,373.008714 C730.448989,373.008714 741.552196,371.421646 750,367.357269 L750,344.518333 Z M408.51716,296.840067 C408.51716,321.247524 390.229993,326.286927 371.799147,326.286927 L345.489893,326.286927 L345.489893,355.757633 L304.506737,355.757633 L278.543377,326.671109 L251.560959,355.757633 L168.040784,355.757633 L168.040784,267.893967 L252.846089,267.893967 L278.788164,296.694343 L305.608277,267.893967 L372.98317,267.893967 C389.716473,267.893967 408.51716,272.506796 408.51716,296.840067 Z M240.886128,337.446742 L189.044551,337.446742 L189.044551,319.965152 L235.335855,319.965152 L235.335855,302.038442 L189.044551,302.038442 L189.044551,286.064434 L241.907847,286.064434 L264.971016,311.669478 L240.886128,337.446742 Z M324.488786,347.766655 L292.115738,311.976823 L324.488786,277.323639 L324.488786,347.766655 Z M372.738383,308.442352 L345.489893,308.442352 L345.489893,286.067084 L372.98317,286.067084 C380.595506,286.067084 385.879707,289.156434 385.879707,296.840067 C385.879707,304.438915 380.840293,308.442352 372.738383,308.442352 Z M514.999397,267.893967 L585.372927,267.893967 L585.372927,286.064434 L535.997843,286.064434 L535.997843,302.038442 L584.167619,302.038442 L584.167619,319.965152 L535.997843,319.965152 L535.997843,337.446742 L585.372927,337.526227 L585.372927,355.757633 L514.999397,355.757633 L514.999397,267.893967 L514.999397,267.893967 Z M488.362873,314.925749 C493.056393,316.650592 496.893159,319.742592 498.69181,322.302036 C501.669162,326.591623 502.100199,330.595061 502.185343,338.339633 L502.185343,355.757633 L481.01661,355.757633 L481.01661,344.764739 C481.01661,339.47893 481.527469,331.652223 477.608221,327.56665 C474.5271,324.41901 469.83092,323.666543 462.138762,323.666543 L439.605077,323.666543 L439.605077,355.757633 L418.41772,355.757633 L418.41772,267.893967 L467.098355,267.893967 C477.773186,267.893967 485.547826,268.362934 492.468373,272.040479 C499.122847,276.043917 503.308169,281.528441 503.308169,291.551608 C503.305508,305.575562 493.913147,312.731939 488.362873,314.925749 Z M475.628641,303.991144 C472.808272,305.657698 469.32006,305.800772 465.217222,305.800772 L439.602417,305.800772 L439.602417,286.067084 L465.565777,286.067084 C469.32006,286.067084 473.077005,286.14657 475.628641,287.654151 C478.361206,289.076948 479.994891,291.798014 479.994891,295.557695 C479.994891,299.317376 478.361206,302.345787 475.628641,303.991144 Z M665.891804,309.417379 C669.997304,313.648676 672.197724,318.990126 672.197724,328.032967 C672.197724,346.934703 660.33887,355.757633 639.074351,355.757633 L598.006052,355.757633 L598.006052,336.916836 L638.909386,336.916836 C642.908457,336.916836 645.74479,336.38958 647.522155,334.741573 C648.97225,333.382365 650.012594,331.408466 650.012594,329.010643 C650.012594,326.451198 648.887107,324.41901 647.439672,323.200226 C645.827273,321.859565 643.602906,321.250173 639.931105,321.250173 C620.212468,320.579843 595.518274,321.859565 595.518274,294.055412 C595.518274,281.31118 603.558987,267.896617 625.664294,267.896617 L667.935241,267.896617 L667.935241,286.596989 L629.256274,286.596989 C625.422168,286.596989 622.929069,286.740064 620.80847,288.184057 C618.498961,289.606854 617.642207,291.718528 617.642207,294.505832 C617.642207,297.820392 619.603162,300.075141 622.255905,301.050168 C624.480272,301.82118 626.869603,302.04639 630.461583,302.04639 L641.812238,302.351086 C653.258679,302.629287 661.115802,304.600536 665.891804,309.417379 Z M750,286.59169 L711.571141,286.59169 C707.734374,286.59169 705.185399,286.734765 703.038194,288.178758 C700.813827,289.601555 699.957074,291.713229 699.957074,294.500533 C699.957074,297.815093 701.835546,300.069842 704.568111,301.044869 C706.792478,301.815881 709.181809,302.041091 712.693967,302.041091 L724.121783,302.345787 C735.653368,302.629287 743.350847,304.603185 748.044367,309.417379 C748.89846,310.08771 749.41198,310.840176 750,311.592642 L750,286.59169 Z" id="American" sketch:type="MSShapeGroup"></path>
        </g>
    </g>
</svg>
